src/images_karasa_jaga_svg/cmd/sc_verticalcaption.svg

<svg height="16" viewBox="0 0 16 16" width="16" xmlns="http://www.w3.org/2000/svg" xmlns:xlink="http://www.w3.org/1999/xlink"><linearGradient id="a" gradientUnits="userSpaceOnUse" x1="2.832401" x2="127.98242" y1="64.202637" y2="64.202637"><stop offset="0" stop-color="#7c9fcf"/><stop offset=".5" stop-color="#7c9ece"/><stop offset="1" stop-color="#7b9dcf"/></linearGradient><linearGradient id="b" gradientTransform="matrix(0 -.920375 -.99037725 0 129.87128 122.904)" gradientUnits="userSpaceOnUse" x1="53.92849" x2="87.71418" y1="194.47232" y2="-39.260796"><stop offset="0" stop-color="#fff"/><stop offset=".42597079" stop-color="#fff"/><stop offset=".5892781" stop-color="#f1f1f1"/><stop offset=".80219781" stop-color="#eaeaea"/><stop offset="1" stop-color="#dfdfdf"/></linearGradient><g transform="scale(.125)"><path d="m73.847656-.35351562c-16.034312.73789296-34.495772 11.37186162-43.005859 30.77343762-4.431859-2.486121-9.243073-6.629914-14.574219-11.615234-6.153028-5.750849-15.86456545.710313-12.9374999 8.607421 5.0684544 13.659522 13.4649179 21.526517 21.2460939 27.558594-.323705 2.983311-.548606 5.982098-.558594 9.001953v.0059c-.0522 20.145208 7.516242 37.425464 18.363281 49.189454 10.534024 11.42451 24.355499 15.94397 38.673829 14.64648 13.262727-.39702 24.888422-8.4668 33.156252-19.89257 8.47603-11.713543 13.77144-27.214986 13.77148-43.92192-.00004-16.706935-5.29545-32.208377-13.77148-43.921875-8.47603-11.7134977-20.533423-20.06062073-34.21094-20.06054687l1.513672.14453125c-2.500435-.48255874-5.067931-.63518798-7.666016-.515625z" fill="url(#a)" stroke-width=".920375" transform="matrix(1 0 0 -1 0 128)"/><path d="m120 64c-.00007 29.978433-19.35195 56.00011-40 56-14.400088 2.77907-38.12222-8.6655-44.315101-32.65627-9.434347 1.335121-17.123509 8.77838-24.869689 16.02207 5.180662-13.961917 13.663482-20.493969 22.240934-26.813107-.687702-4.110196-1.042155-8.32301-1.056144-12.552693-.09397-36.26627 27.262141-62.00471 48-56 20.64805-.00011 39.99993 26.021569 40 56z" fill="url(#b)" stroke-width=".920375"/><g fill="#06f" stroke-width="1.458041"><path d="m56 32v56h-7.999997v-56z"/><path d="m71.999997 32v64h-7.999997v-64z"/><path d="m88 32v56h-7.999997v-56z"/><path d="m104 32v64h-8v-64z"/></g></g></svg>

<?xml version="1.0" encoding="UTF-8" standalone="no"?>
<svg
   xmlns:dc="http://purl.org/dc/elements/1.1/"
   xmlns:cc="http://creativecommons.org/ns#"
   xmlns:rdf="http://www.w3.org/1999/02/22-rdf-syntax-ns#"
   xmlns:svg="http://www.w3.org/2000/svg"
   xmlns="http://www.w3.org/2000/svg"
   xmlns:xlink="http://www.w3.org/1999/xlink"
   xmlns:sodipodi="http://sodipodi.sourceforge.net/DTD/sodipodi-0.dtd"
   xmlns:inkscape="http://www.inkscape.org/namespaces/inkscape"
   height="128"
   viewBox="0 0 128 128"
   width="128"
   version="1.1"
   id="svg31"
   sodipodi:docname="sc_verticalcaption.svg"
   inkscape:export-filename="/home/rizmut/Dokumen/Rizmut/Github/libreoffice-style-karasa-jaga/build/images_karasa_jaga/cmd/sc_verticalcaption.png"
   inkscape:export-xdpi="12"
   inkscape:export-ydpi="12"
   inkscape:version="0.92.3 (unknown)">
  <metadata
     id="metadata37">
    <rdf:RDF>
      <cc:Work
         rdf:about="">
        <dc:format>image/svg+xml</dc:format>
        <dc:type
           rdf:resource="http://purl.org/dc/dcmitype/StillImage" />
        <dc:title />
      </cc:Work>
    </rdf:RDF>
  </metadata>
  <defs
     id="defs35">
    <linearGradient
       id="linearGradient7422">
      <stop
         style="stop-color:#7c9fcf;stop-opacity:1"
         offset="0"
         id="stop7424" />
      <stop
         id="stop5348"
         offset="0.5"
         style="stop-color:#7c9ece;stop-opacity:1" />
      <stop
         id="stop7426"
         offset="1"
         style="stop-color:#7b9dcf;stop-opacity:1" />
    </linearGradient>
    <linearGradient
       inkscape:collect="always"
       xlink:href="#linearGradient7422"
       id="linearGradient2959"
       x1="2.8324006"
       y1="64.202637"
       x2="127.98242"
       y2="64.202637"
       gradientUnits="userSpaceOnUse" />
  </defs>
  <sodipodi:namedview
     pagecolor="#ffffff"
     bordercolor="#666666"
     borderopacity="1"
     objecttolerance="10"
     gridtolerance="10"
     guidetolerance="10"
     inkscape:pageopacity="0"
     inkscape:pageshadow="2"
     inkscape:window-width="1366"
     inkscape:window-height="706"
     id="namedview33"
     showgrid="true"
     inkscape:zoom="1.84375"
     inkscape:cx="-40.289311"
     inkscape:cy="17.196638"
     inkscape:window-x="0"
     inkscape:window-y="0"
     inkscape:window-maximized="1"
     inkscape:current-layer="svg31">
    <inkscape:grid
       type="xygrid"
       id="grid844"
       spacingx="8"
       spacingy="8"
       empspacing="1" />
  </sodipodi:namedview>
  <linearGradient
     id="a"
     gradientTransform="matrix(0,-0.920375,-0.99037725,0,129.87128,122.904)"
     gradientUnits="userSpaceOnUse"
     x1="53.92849"
     x2="87.71418"
     y1="194.47232"
     y2="-39.260796">
    <stop
       offset="0"
       stop-color="#fff"
       id="stop2" />
    <stop
       offset=".42597079"
       stop-color="#fff"
       id="stop4" />
    <stop
       offset=".5892781"
       stop-color="#f1f1f1"
       id="stop6" />
    <stop
       offset=".80219781"
       stop-color="#eaeaea"
       id="stop8" />
    <stop
       offset="1"
       stop-color="#dfdfdf"
       id="stop10" />
  </linearGradient>
  <g
     id="g870">
    <path
       transform="matrix(1,0,0,-1,0,128)"
       sodipodi:type="inkscape:offset"
       inkscape:radius="7.9828959"
       inkscape:original="M 74.214844 7.6210938 C 59.942677 8.2778935 41.104318 19.664323 35.685547 40.65625 C 26.2512 39.321129 18.560633 31.878461 10.814453 24.634766 C 15.995115 38.596688 24.479189 45.128128 33.056641 51.447266 C 32.368939 55.557462 32.013989 59.770317 32 64 C 31.90603 100.26627 59.262141 126.00471 80 120 C 100.64805 120.00011 119.99993 93.978431 120 64 C 119.99993 34.021567 100.64805 7.9998885 80 8 C 78.199989 7.652616 76.253725 7.5272652 74.214844 7.6210938 z "
       style="fill:url(#linearGradient2959);fill-opacity:1.0;stroke-width:0.92037499"
       id="path857"
       d="M 73.847656,-0.35351562 C 57.813344,0.38437734 39.351884,11.018346 30.841797,30.419922 26.409938,27.933801 21.598724,23.790008 16.267578,18.804688 A 7.9836941,7.9836941 0 0 0 3.3300781,27.412109 c 5.0684544,13.659522 13.4649179,21.526517 21.2460939,27.558594 -0.323705,2.983311 -0.548606,5.982098 -0.558594,9.001953 a 7.9836941,7.9836941 0 0 0 0,0.0059 c -0.0522,20.145208 7.454614,37.518414 18.300781,49.283204 10.534567,11.4268 24.851883,18.03757 38.673829,14.64648 13.262727,-0.39702 24.950922,-8.56055 33.218752,-19.98632 C 122.68697,96.208377 127.98238,80.706934 127.98242,64 127.98238,47.293065 122.68697,31.791623 114.21094,20.078125 105.73491,8.3646273 93.677517,0.01750427 80,0.01757813 l 1.513672,0.14453125 c -2.500435,-0.48255874 -5.067931,-0.63518798 -7.666016,-0.515625 z" />
    <path
       d="m 120,64 c -7e-5,29.978433 -19.35195,56.00011 -40,56 C 65.599912,122.77907 41.87778,111.3345 35.684899,87.34373 26.250552,88.678851 18.56139,96.12211 10.81521,103.3658 15.995872,89.403883 24.478692,82.871831 33.056144,76.552693 32.368442,72.442497 32.013989,68.229683 32,64 31.90603,27.73373 59.262141,1.99529 80,8 c 20.64805,-1.1e-4 39.99993,26.021569 40,56 z"
       id="path15"
       style="fill:url(#a);stroke-width:0.92037499"
       inkscape:connector-curvature="0"
       sodipodi:nodetypes="cccccccc" />
    <path
       sodipodi:nodetypes="ccccc"
       d="M 56,32 V 88 H 48.000003 V 32 Z"
       id="path27"
       style="fill:#0066ff;stroke-width:1.45804143"
       inkscape:connector-curvature="0" />
    <path
       inkscape:connector-curvature="0"
       style="fill:#0066ff;stroke-width:1.45804143"
       id="path851"
       d="M 71.999997,32 V 96 H 64 V 32 Z"
       sodipodi:nodetypes="ccccc" />
    <path
       inkscape:connector-curvature="0"
       style="fill:#0066ff;stroke-width:1.45804143"
       id="path853"
       d="M 88,32 V 88 H 80.000003 V 32 Z"
       sodipodi:nodetypes="ccccc" />
    <path
       sodipodi:nodetypes="ccccc"
       d="M 104,32 V 96 H 96 V 32 Z"
       id="path855"
       style="fill:#0066ff;stroke-width:1.45804143"
       inkscape:connector-curvature="0" />
  </g>
</svg>
